public/assets/svg/brands/layar-gray.svg

<?xml version="1.0" encoding="utf-8"?>
<!-- Generator: Adobe Illustrator 24.1.2, SVG Export Plug-In . SVG Version: 6.00 Build 0)  -->
<svg version="1.1" id="Layer_1" xmlns="http://www.w3.org/2000/svg" xmlns:xlink="http://www.w3.org/1999/xlink" x="0px" y="0px"
	 viewBox="0 0 200.4 66.5" style="enable-background:new 0 0 200.4 66.5;" xml:space="preserve">
<style type="text/css">
	.st0{fill:#BDC5D1;}
	.st1{fill:#7B878D;}
	.st2{fill:#FFFFFF;}
</style>
<path class="st0" d="M173.3,33.2c0,1.4,0.5,21-5.9,27.3c-6.4,6.4-27.3,5.9-27.3,5.9s-21,0.5-27.3-5.9c-6.4-6.4-5.9-26-5.9-27.3
	c0-1.4-0.5-21,5.9-27.3c6.4-6.4,27.3-5.9,27.3-5.9s21-0.5,27.3,5.9C173.8,12.3,173.3,31.9,173.3,33.2z"/>
<path class="st1" d="M33.8,41.7V9.6c0-1.9-1.4-3.3-3.3-3.3c-1.9,0-3.4,1.4-3.4,3.3v32.2c0,3.7,3,6.7,6.7,6.7c1.9,0,3.3-1.4,3.3-3.3
	C37.1,43.2,35.6,41.7,33.8,41.7z"/>
<path class="st1" d="M65.7,18.3c-1.6,0-2.8,1.1-3.1,2.7c-2.3-1.6-5-2.7-8-2.7c-4.1,0-7.7,1.7-10.2,4.5c-2.6,2.7-4.1,6.5-4.1,10.6
	c0,4.1,1.5,7.8,4.1,10.6c2.6,2.7,6.1,4.4,10.2,4.4c3,0,5.7-1,8-2.6c0.4,1.4,1.6,2.6,3.1,2.6c1.7,0,3.2-1.4,3.2-3.2V21.5
	C68.9,19.7,67.4,18.3,65.7,18.3z M60.1,39.6c-1.4,1.5-3.5,2.4-5.6,2.4c-2.2,0-4.2-0.8-5.6-2.4c-1.4-1.6-2.3-3.7-2.3-6.2
	s0.8-4.7,2.3-6.2c1.4-1.6,3.4-2.5,5.6-2.5c2.1,0,4.2,0.8,5.6,2.5c1.4,1.5,2.4,3.7,2.4,6.2S61.6,38.1,60.1,39.6z"/>
<path class="st1" d="M97.2,18.3c-1.8,0-3.1,1.4-3.1,3.2v14.2c0,3.5-2.8,6.1-6.2,6.1s-6.3-2.7-6.3-6.1V21.5c0-1.8-1.3-3.2-3.2-3.2
	c-1.6,0-3.1,1.4-3.1,3.2v14.2c0,6.9,5.7,12.7,12.6,12.7c2,0,4-0.5,5.7-1.4c-1,3.1-4,5.4-7.5,5.5c-1.2,0-2.4-0.3-3.5-0.8
	c-1.4-0.8-3.5-0.1-4.3,1.3c-0.7,1.7-0.1,3.6,1.6,4.3c1.8,0.9,4,1.5,6.2,1.5c8,0,14.4-6.3,14.4-14.4V21.5
	C100.4,19.7,98.9,18.3,97.2,18.3z"/>
<path class="st2" d="M163.6,24.8L163.6,24.8c-4.6,0-8.8,5.4-8.8,10v10.3c0,1.8-1.5,3.3-3.3,3.3s-3.3-1.5-3.3-3.3l0,0V21.6
	c0-1.8,1.5-3.3,3.3-3.3s3.3,1.5,3.3,3.3v0.2c2-2.2,4.9-3.5,8-3.5h0.7c1.8,0,3.3,1.5,3.3,3.3C166.9,23.4,165.4,24.8,163.6,24.8
	L163.6,24.8z M138.7,18.3c-1.6,0-2.8,1.1-3.1,2.7c-2.3-1.6-5-2.7-8-2.7c-4.1,0-7.7,1.7-10.2,4.5c-2.6,2.7-4.1,6.5-4.1,10.6
	s1.5,7.8,4.1,10.6c2.6,2.7,6.1,4.4,10.2,4.4c3,0,5.7-1,8-2.6c0.4,1.4,1.6,2.6,3.1,2.6c1.7,0,3.2-1.4,3.2-3.2V21.5
	C141.9,19.7,140.5,18.3,138.7,18.3z M133.2,39.6c-1.4,1.5-3.5,2.4-5.6,2.4c-2.2,0-4.2-0.8-5.6-2.4c-1.4-1.6-2.3-3.7-2.3-6.2
	s0.8-4.7,2.3-6.2c1.4-1.6,3.4-2.5,5.6-2.5c2.1,0,4.2,0.8,5.6,2.5c1.4,1.5,2.4,3.7,2.4,6.2C135.5,35.9,134.6,38.1,133.2,39.6z"/>
</svg>

<svg width="201" height="67" viewBox="0 0 201 67" fill="none" xmlns="http://www.w3.org/2000/svg">
<g clip-path="url(#clip0)">
<path d="M173.3 33.2C173.3 34.6 173.8 54.2 167.4 60.5C161 66.9 140.1 66.4 140.1 66.4C140.1 66.4 119.1 66.9 112.8 60.5C106.4 54.1 106.9 34.5 106.9 33.2C106.9 31.8 106.4 12.2 112.8 5.90001C119.2 -0.499994 140.1 5.99585e-06 140.1 5.99585e-06C140.1 5.99585e-06 161.1 -0.499994 167.4 5.90001C173.8 12.3 173.3 31.9 173.3 33.2Z" fill="#7B878D"/>
<path d="M33.8 41.7V9.59999C33.8 7.69999 32.4 6.29999 30.5 6.29999C28.6 6.29999 27.1 7.69999 27.1 9.59999V41.8C27.1 45.5 30.1 48.5 33.8 48.5C35.7 48.5 37.1 47.1 37.1 45.2C37.1 43.2 35.6 41.7 33.8 41.7Z" fill="#7B878D"/>
<path d="M65.7 18.3C64.1 18.3 62.9 19.4 62.6 21C60.3 19.4 57.6 18.3 54.6 18.3C50.5 18.3 46.9 20 44.4 22.8C41.8 25.5 40.3 29.3 40.3 33.4C40.3 37.5 41.8 41.2 44.4 44C47 46.7 50.5 48.4 54.6 48.4C57.6 48.4 60.3 47.4 62.6 45.8C63 47.2 64.2 48.4 65.7 48.4C67.4 48.4 68.9 47 68.9 45.2V21.5C68.9 19.7 67.4 18.3 65.7 18.3ZM60.1 39.6C58.7 41.1 56.6 42 54.5 42C52.3 42 50.3 41.2 48.9 39.6C47.5 38 46.6 35.9 46.6 33.4C46.6 30.9 47.4 28.7 48.9 27.2C50.3 25.6 52.3 24.7 54.5 24.7C56.6 24.7 58.7 25.5 60.1 27.2C61.5 28.7 62.5 30.9 62.5 33.4C62.5 35.9 61.6 38.1 60.1 39.6Z" fill="#7B878D"/>
<path d="M97.2 18.3C95.4 18.3 94.1 19.7 94.1 21.5V35.7C94.1 39.2 91.3 41.8 87.9 41.8C84.5 41.8 81.6 39.1 81.6 35.7V21.5C81.6 19.7 80.3 18.3 78.4 18.3C76.8 18.3 75.3 19.7 75.3 21.5V35.7C75.3 42.6 81 48.4 87.9 48.4C89.9 48.4 91.9 47.9 93.6 47C92.6 50.1 89.6 52.4 86.1 52.5C84.9 52.5 83.7 52.2 82.6 51.7C81.2 50.9 79.1 51.6 78.3 53C77.6 54.7 78.2 56.6 79.9 57.3C81.7 58.2 83.9 58.8 86.1 58.8C94.1 58.8 100.5 52.5 100.5 44.4V21.5C100.4 19.7 98.9 18.3 97.2 18.3Z" fill="#7B878D"/>
<path d="M163.6 24.8C159 24.8 154.8 30.2 154.8 34.8V45.1C154.8 46.9 153.3 48.4 151.5 48.4C149.7 48.4 148.2 46.9 148.2 45.1V21.6C148.2 19.8 149.7 18.3 151.5 18.3C153.3 18.3 154.8 19.8 154.8 21.6V21.8C156.8 19.6 159.7 18.3 162.8 18.3H163.5C165.3 18.3 166.8 19.8 166.8 21.6C166.9 23.4 165.4 24.8 163.6 24.8ZM138.7 18.3C137.1 18.3 135.9 19.4 135.6 21C133.3 19.4 130.6 18.3 127.6 18.3C123.5 18.3 119.9 20 117.4 22.8C114.8 25.5 113.3 29.3 113.3 33.4C113.3 37.5 114.8 41.2 117.4 44C120 46.7 123.5 48.4 127.6 48.4C130.6 48.4 133.3 47.4 135.6 45.8C136 47.2 137.2 48.4 138.7 48.4C140.4 48.4 141.9 47 141.9 45.2V21.5C141.9 19.7 140.5 18.3 138.7 18.3ZM133.2 39.6C131.8 41.1 129.7 42 127.6 42C125.4 42 123.4 41.2 122 39.6C120.6 38 119.7 35.9 119.7 33.4C119.7 30.9 120.5 28.7 122 27.2C123.4 25.6 125.4 24.7 127.6 24.7C129.7 24.7 131.8 25.5 133.2 27.2C134.6 28.7 135.6 30.9 135.6 33.4C135.5 35.9 134.6 38.1 133.2 39.6Z" fill="white"/>
</g>
<defs>
<clipPath id="clip0">
<rect width="200.4" height="66.5" fill="white"/>
</clipPath>
</defs>
</svg>
